Suru++-Ubuntu/apps/scalable/rstudio.svg

<svg width="256" height="256" style="isolation:isolate" viewBox="0 0 256 256" xmlns="http://www.w3.org/2000/svg">
 <defs>
  <filter id="NCgV9ohrpcTJDSchOHEw3nd1Y5TNG1p8" x="-200%" y="-200%" width="400%" height="400%" color-interpolation-filters="sRGB">
   <feGaussianBlur stdDeviation="1.16" xmlns="http://www.w3.org/2000/svg"/>
  </filter>
 </defs>
 <g filter="url(#NCgV9ohrpcTJDSchOHEw3nd1Y5TNG1p8)" opacity=".1">
  <path d="m165.68478 11.946963c74.055709 0 84.639399 10.557202 84.639399 84.543839v59.25077c0 73.986331-10.58369 84.543833-84.639399 84.543833h-75.369517c-74.055713 0-84.639404-10.557502-84.639404-84.543833v-59.25077c0-73.986637 10.583691-84.543839 84.639404-84.543839h75.369517z"/>
 </g>
 <defs>
  <filter id="awVKVJzZaTUNNtf2PIKt79Jk0enD3U9P" x="-200%" y="-200%" width="400%" height="400%" color-interpolation-filters="sRGB">
   <feGaussianBlur stdDeviation="2.32" xmlns="http://www.w3.org/2000/svg"/>
  </filter>
 </defs>
 <g filter="url(#awVKVJzZaTUNNtf2PIKt79Jk0enD3U9P)" opacity=".2">
  <path d="m165.68478 13.985699c74.055709 0 84.639399 10.557202 84.639399 84.543839v59.25077c0 73.986331-10.58369 84.543833-84.639399 84.543833h-75.369517c-74.055713 0-84.639404-10.557502-84.639404-84.543833v-59.25077c0-73.986637 10.583691-84.543839 84.639404-84.543839h75.369517z"/>
 </g>
 <g opacity=".2">
  <path d="m165.68478 11.946973c74.055709 0 84.639399 10.557203 84.639399 84.543834v59.250783c0 73.986329-10.58369 84.543834-84.639399 84.543834h-75.369523c-74.055712 0-84.639403-10.557505-84.639403-84.543834v-59.250783c0-73.986631 10.583691-84.543834 84.639403-84.543834h75.369523z" fill="none" stroke="#000000" stroke-linecap="round" stroke-linejoin="round" stroke-width="4.077" vector-effect="non-scaling-stroke"/>
 </g>
 <linearGradient id="_lgradient_0" x1=".533" x2=".533" y1="1" gradientTransform="matrix(244.64832 0 0 228.33845 5.675855 11.946973)" gradientUnits="userSpaceOnUse">
  <stop style="stop-color:rgb(50,95,209)" offset="0"/>
  <stop style="stop-color:rgb(110,152,255)" offset="1"/>
 </linearGradient>
 <path d="m165.68478 11.946973c74.055709 0 84.639399 10.557203 84.639399 84.543834v59.250783c0 73.986329-10.58369 84.543834-84.639399 84.543834h-75.369523c-74.055712 0-84.639403-10.557505-84.639403-84.543834v-59.250783c0-73.986631 10.583691-84.543834 84.639403-84.543834h75.369523z" fill="url(#_lgradient_0)"/>
 <g opacity=".1">
  <path d="m5.676021 126.11576v29.62541c0 73.986329 10.583691 84.543796 84.639396 84.543796h75.36953c74.05571 0 84.6394-10.557467 84.6394-84.543796v-29.62541h-244.64833z" fill="#FFFFFF"/>
 </g>
 <clipPath id="_clipPath_fddaHh6LyJ2K8YWscF5L50mEZIjgP1oF">
  <path d="m165.68478 11.946985c74.055711 0 84.639402 10.557202 84.639402 84.543837v59.250767c0 73.986333-10.583691 84.543837-84.639402 84.543837h-75.369525c-74.055711 0-84.639402-10.557504-84.639402-84.543837v-59.250767c0-73.986635 10.583691-84.543837 84.639402-84.543837h75.369525z" fill="#FFFFFF"/>
 </clipPath>
 <g clip-path="url(#_clipPath_fddaHh6LyJ2K8YWscF5L50mEZIjgP1oF)">
  <g opacity=".5">
   <linearGradient id="_lgradient_1" x1=".517" x2=".517" y2="1">
    <stop style="stop-color:rgb(255,255,255)" offset="0"/>
    <stop stop-opacity=".098" style="stop-color:rgb(255,255,255)" offset=".125"/>
    <stop stop-opacity="0" style="stop-color:rgb(0,0,0)" offset=".925"/>
    <stop stop-opacity="0" style="stop-color:rgb(0,0,0)" offset="1"/>
   </linearGradient>
   <path d="m165.68478 11.946985c74.055711 0 84.639402 10.557202 84.639402 84.543837v59.250767c0 73.986333-10.583691 84.543837-84.639402 84.543837h-75.369525c-74.055711 0-84.639402-10.557504-84.639402-84.543837v-59.250767c0-73.986635 10.583691-84.543837 84.639402-84.543837h75.369525z" fill="none" stroke="url(#_lgradient_1)" stroke-linecap="round" stroke-linejoin="round" stroke-width="4.077" vector-effect="non-scaling-stroke"/>
  </g>
 </g>
 <g opacity=".2">
  <path d="m78.540897 94.76781v-21.76781h63.48285q9.261213 0 16.543535 2.770449 7.282322 2.770448 12.26913 7.401055 4.986807 4.630607 7.638522 10.765171 2.651715 6.134565 2.651715 12.783642 0 6.094986-1.306069 10.686015-1.306068 4.591029-3.799472 8.153035-2.493404 3.562005-6.134564 6.292876-3.641161 2.73087-8.311346 4.947229 4.036939 2.058048 7.12401 6.292876 3.087072 4.234829 4.670185 10.963061l4.036939 15.593668h9.89446l0.158311 23.350923h-34.828496l-4.749341-28.496042q-0.712401-5.065963-2.176781-8.746702-1.464379-3.680739-3.918205-6.015831-2.453826-2.335093-5.976254-3.443272-3.522427-1.108179-8.350923-1.108179h-10.211082v26.121372h11.002639v21.688654h-49.709763v-21.688654h12.427441v-76.543536h-12.427441zm54.459103 0h-15.751979v29.050132h15.751979q4.511873 0 8.113456-0.831135 3.601584-0.831134 6.174143-2.612137 2.572559-1.781002 3.957784-4.472295 1.385224-2.691293 1.385224-6.41161 0-6.965699-4.986808-10.844327-4.986807-3.878628-14.643799-3.878628z" fill-rule="evenodd"/>
 </g>
 <path d="m73.540897 89.76781v-21.76781h63.48285q9.261213 0 16.543535 2.770449 7.282322 2.770448 12.26913 7.401055 4.986807 4.630607 7.638522 10.765171 2.651715 6.134565 2.651715 12.783642 0 6.094986-1.306069 10.686015-1.306068 4.591029-3.799472 8.153035-2.493404 3.562005-6.134564 6.292876-3.641161 2.73087-8.311346 4.947229 4.036939 2.058048 7.12401 6.292876 3.087072 4.234829 4.670185 10.963061l4.036939 15.593668h9.89446l0.158311 23.350923h-34.828496l-4.749341-28.496042q-0.712401-5.065963-2.176781-8.746702-1.464379-3.680739-3.918205-6.015831-2.453826-2.335093-5.976254-3.443272-3.522427-1.108179-8.350923-1.108179h-10.211082v26.121372h11.002639v21.688654h-49.709763v-21.688654h12.427441v-76.543536h-12.427441zm54.459103 0h-15.751979v29.050132h15.751979q4.511873 0 8.113456-0.831135 3.601584-0.831134 6.174143-2.612137 2.572559-1.781002 3.957784-4.472295 1.385224-2.691293 1.385224-6.41161 0-6.965699-4.986808-10.844327-4.986807-3.878628-14.643799-3.878628z" fill="#FFFFFF" fill-rule="evenodd"/>
</svg>

<svg xmlns="http://www.w3.org/2000/svg" style="isolation:isolate" width="256" height="256" viewBox="0 0 256 256">
 <defs>
  <filter id="NCgV9ohrpcTJDSchOHEw3nd1Y5TNG1p8" width="400%" height="400%" x="-200%" y="-200%" color-interpolation-filters="sRGB" filterUnits="objectBoundingBox">
   <feGaussianBlur xmlns="http://www.w3.org/2000/svg" stdDeviation="1.16"/>
  </filter>
 </defs>
 <g opacity=".1" filter="url(#NCgV9ohrpcTJDSchOHEw3nd1Y5TNG1p8)">
  <path d="M 165.684783 11.946963 C 239.740492 11.946963 250.324182 22.504165 250.324182 96.490802 L 250.324182 155.741572 C 250.324182 229.727903 239.740492 240.285405 165.684783 240.285405 L 90.315266 240.285405 C 16.259553 240.285405 5.675862 229.727903 5.675862 155.741572 L 5.675862 96.490802 C 5.675862 22.504165 16.259553 11.946963 90.315266 11.946963 L 165.684783 11.946963 Z"/>
 </g>
 <defs>
  <filter id="awVKVJzZaTUNNtf2PIKt79Jk0enD3U9P" width="400%" height="400%" x="-200%" y="-200%" color-interpolation-filters="sRGB" filterUnits="objectBoundingBox">
   <feGaussianBlur xmlns="http://www.w3.org/2000/svg" stdDeviation="2.32"/>
  </filter>
 </defs>
 <g opacity=".2" filter="url(#awVKVJzZaTUNNtf2PIKt79Jk0enD3U9P)">
  <path d="M 165.684783 13.985699 C 239.740492 13.985699 250.324182 24.542901 250.324182 98.529538 L 250.324182 157.780308 C 250.324182 231.766639 239.740492 242.324141 165.684783 242.324141 L 90.315266 242.324141 C 16.259553 242.324141 5.675862 231.766639 5.675862 157.780308 L 5.675862 98.529538 C 5.675862 24.542901 16.259553 13.985699 90.315266 13.985699 L 165.684783 13.985699 Z"/>
 </g>
 <g opacity=".2">
  <path fill="none" stroke="#000000" stroke-linecap="round" stroke-linejoin="round" stroke-width="4.077" d="M 165.684781 11.946973 C 239.74049 11.946973 250.32418 22.504176 250.32418 96.490807 L 250.32418 155.74159 C 250.32418 229.727919 239.74049 240.285424 165.684781 240.285424 L 90.315258 240.285424 C 16.259546 240.285424 5.675855 229.727919 5.675855 155.74159 L 5.675855 96.490807 C 5.675855 22.504176 16.259546 11.946973 90.315258 11.946973 L 165.684781 11.946973 Z" vector-effect="non-scaling-stroke"/>
 </g>
 <linearGradient id="_lgradient_0" x1=".533" x2=".533" y1="1" y2="0" gradientTransform="matrix(244.648325,0,0,228.338451,5.675855,11.946973)" gradientUnits="userSpaceOnUse">
  <stop offset="0%" style="stop-color:rgb(50,95,209)"/>
  <stop offset="100%" style="stop-color:rgb(110,152,255)"/>
 </linearGradient>
 <path fill="url(#_lgradient_0)" d="M 165.684781 11.946973 C 239.74049 11.946973 250.32418 22.504176 250.32418 96.490807 L 250.32418 155.74159 C 250.32418 229.727919 239.74049 240.285424 165.684781 240.285424 L 90.315258 240.285424 C 16.259546 240.285424 5.675855 229.727919 5.675855 155.74159 L 5.675855 96.490807 C 5.675855 22.504176 16.259546 11.946973 90.315258 11.946973 L 165.684781 11.946973 Z"/>
 <g opacity=".1">
  <path fill="#FFFFFF" d="M 5.676021 126.115764 L 5.676021 155.741174 C 5.676021 229.727503 16.259712 240.28497 90.315417 240.28497 L 165.684947 240.28497 C 239.740657 240.28497 250.324347 229.727503 250.324347 155.741174 L 250.324347 126.115764 L 5.676021 126.115764 Z"/>
 </g>
 <clipPath id="_clipPath_fddaHh6LyJ2K8YWscF5L50mEZIjgP1oF">
  <path fill="#FFFFFF" d="M 165.684782 11.946985 C 239.740493 11.946985 250.324184 22.504187 250.324184 96.490822 L 250.324184 155.741589 C 250.324184 229.727922 239.740493 240.285426 165.684782 240.285426 L 90.315257 240.285426 C 16.259546 240.285426 5.675855 229.727922 5.675855 155.741589 L 5.675855 96.490822 C 5.675855 22.504187 16.259546 11.946985 90.315257 11.946985 L 165.684782 11.946985 Z"/>
 </clipPath>
 <g clip-path="url(#_clipPath_fddaHh6LyJ2K8YWscF5L50mEZIjgP1oF)">
  <g opacity=".5">
   <linearGradient id="_lgradient_1" x1=".517" x2=".517" y1="0" y2="1">
    <stop offset="0%" style="stop-color:rgb(255,255,255)"/>
    <stop offset="12.5%" stop-opacity=".098" style="stop-color:rgb(255,255,255)"/>
    <stop offset="92.5%" stop-opacity="0" style="stop-color:rgb(0,0,0)"/>
    <stop offset="100%" stop-opacity="0" style="stop-color:rgb(0,0,0)"/>
   </linearGradient>
   <path fill="none" stroke="url(#_lgradient_1)" stroke-linecap="round" stroke-linejoin="round" stroke-width="4.077" d="M 165.684782 11.946985 C 239.740493 11.946985 250.324184 22.504187 250.324184 96.490822 L 250.324184 155.741589 C 250.324184 229.727922 239.740493 240.285426 165.684782 240.285426 L 90.315257 240.285426 C 16.259546 240.285426 5.675855 229.727922 5.675855 155.741589 L 5.675855 96.490822 C 5.675855 22.504187 16.259546 11.946985 90.315257 11.946985 L 165.684782 11.946985 Z" vector-effect="non-scaling-stroke"/>
  </g>
 </g>
 <g opacity=".2">
  <path fill-rule="evenodd" d="M 78.540897 94.76781 L 78.540897 73 L 142.023747 73 L 142.023747 73 Q 151.28496 73 158.567282 75.770449 L 158.567282 75.770449 L 158.567282 75.770449 Q 165.849604 78.540897 170.836412 83.171504 L 170.836412 83.171504 L 170.836412 83.171504 Q 175.823219 87.802111 178.474934 93.936675 L 178.474934 93.936675 L 178.474934 93.936675 Q 181.126649 100.07124 181.126649 106.720317 L 181.126649 106.720317 L 181.126649 106.720317 Q 181.126649 112.815303 179.82058 117.406332 L 179.82058 117.406332 L 179.82058 117.406332 Q 178.514512 121.997361 176.021108 125.559367 L 176.021108 125.559367 L 176.021108 125.559367 Q 173.527704 129.121372 169.886544 131.852243 L 169.886544 131.852243 L 169.886544 131.852243 Q 166.245383 134.583113 161.575198 136.799472 L 161.575198 136.799472 L 161.575198 136.799472 Q 165.612137 138.85752 168.699208 143.092348 L 168.699208 143.092348 L 168.699208 143.092348 Q 171.78628 147.327177 173.369393 154.055409 L 173.369393 154.055409 L 177.406332 169.649077 L 187.300792 169.649077 L 187.459103 193 L 152.630607 193 L 147.881266 164.503958 L 147.881266 164.503958 Q 147.168865 159.437995 145.704485 155.757256 L 145.704485 155.757256 L 145.704485 155.757256 Q 144.240106 152.076517 141.78628 149.741425 L 141.78628 149.741425 L 141.78628 149.741425 Q 139.332454 147.406332 135.810026 146.298153 L 135.810026 146.298153 L 135.810026 146.298153 Q 132.287599 145.189974 127.459103 145.189974 L 127.459103 145.189974 L 117.248021 145.189974 L 117.248021 171.311346 L 128.25066 171.311346 L 128.25066 193 L 78.540897 193 L 78.540897 171.311346 L 90.968338 171.311346 L 90.968338 94.76781 L 78.540897 94.76781 Z M 133 94.76781 L 117.248021 94.76781 L 117.248021 123.817942 L 133 123.817942 L 133 123.817942 Q 137.511873 123.817942 141.113456 122.986807 L 141.113456 122.986807 L 141.113456 122.986807 Q 144.71504 122.155673 147.287599 120.37467 L 147.287599 120.37467 L 147.287599 120.37467 Q 149.860158 118.593668 151.245383 115.902375 L 151.245383 115.902375 L 151.245383 115.902375 Q 152.630607 113.211082 152.630607 109.490765 L 152.630607 109.490765 L 152.630607 109.490765 Q 152.630607 102.525066 147.643799 98.646438 L 147.643799 98.646438 L 147.643799 98.646438 Q 142.656992 94.76781 133 94.76781 L 133 94.76781 Z"/>
 </g>
 <path fill="#FFFFFF" fill-rule="evenodd" d="M 73.540897 89.76781 L 73.540897 68 L 137.023747 68 L 137.023747 68 Q 146.28496 68 153.567282 70.770449 L 153.567282 70.770449 L 153.567282 70.770449 Q 160.849604 73.540897 165.836412 78.171504 L 165.836412 78.171504 L 165.836412 78.171504 Q 170.823219 82.802111 173.474934 88.936675 L 173.474934 88.936675 L 173.474934 88.936675 Q 176.126649 95.07124 176.126649 101.720317 L 176.126649 101.720317 L 176.126649 101.720317 Q 176.126649 107.815303 174.82058 112.406332 L 174.82058 112.406332 L 174.82058 112.406332 Q 173.514512 116.997361 171.021108 120.559367 L 171.021108 120.559367 L 171.021108 120.559367 Q 168.527704 124.121372 164.886544 126.852243 L 164.886544 126.852243 L 164.886544 126.852243 Q 161.245383 129.583113 156.575198 131.799472 L 156.575198 131.799472 L 156.575198 131.799472 Q 160.612137 133.85752 163.699208 138.092348 L 163.699208 138.092348 L 163.699208 138.092348 Q 166.78628 142.327177 168.369393 149.055409 L 168.369393 149.055409 L 172.406332 164.649077 L 182.300792 164.649077 L 182.459103 188 L 147.630607 188 L 142.881266 159.503958 L 142.881266 159.503958 Q 142.168865 154.437995 140.704485 150.757256 L 140.704485 150.757256 L 140.704485 150.757256 Q 139.240106 147.076517 136.78628 144.741425 L 136.78628 144.741425 L 136.78628 144.741425 Q 134.332454 142.406332 130.810026 141.298153 L 130.810026 141.298153 L 130.810026 141.298153 Q 127.287599 140.189974 122.459103 140.189974 L 122.459103 140.189974 L 112.248021 140.189974 L 112.248021 166.311346 L 123.25066 166.311346 L 123.25066 188 L 73.540897 188 L 73.540897 166.311346 L 85.968338 166.311346 L 85.968338 89.76781 L 73.540897 89.76781 Z M 128 89.76781 L 112.248021 89.76781 L 112.248021 118.817942 L 128 118.817942 L 128 118.817942 Q 132.511873 118.817942 136.113456 117.986807 L 136.113456 117.986807 L 136.113456 117.986807 Q 139.71504 117.155673 142.287599 115.37467 L 142.287599 115.37467 L 142.287599 115.37467 Q 144.860158 113.593668 146.245383 110.902375 L 146.245383 110.902375 L 146.245383 110.902375 Q 147.630607 108.211082 147.630607 104.490765 L 147.630607 104.490765 L 147.630607 104.490765 Q 147.630607 97.525066 142.643799 93.646438 L 142.643799 93.646438 L 142.643799 93.646438 Q 137.656992 89.76781 128 89.76781 L 128 89.76781 Z"/>
</svg>
